X:24
T:GB/7d/24 Trunkles
%%VWML:GB-7d-24-0
F:http://www.vwml.org/record/GB/7d/24
T:Bucknell Morris Tunes 8 of 8
C:Transcribed by Simon Furey and Lewis Jones
L:1/8
M:4/4
I:linebreak $
K:F
c3 A B2 d2 | cABG A2 F2 | c3 A B2 d2 | cBAG F4 :| c3 =B c2 f2 |$ ddd=B c2 f2 | dd (3dc=B A2 B2 | c4 c2 fe | d2 _B2 BABd |$ c2 A2 AFAc | B2 G2 GFGB | A2 F2 F2 c2 | B2 AG F2 G2 | F4 F4 |]

